!!!OTL: Zaiyang han ge
!!!ARE: Asia, China,ÿHunan, Huarong
!! I, 545
!!!SCT: C1469
!!!YEM: Copyright 1995, estate of Helmut Schaffrath.
**kern
*ICvox
*Ivox
!! Irregular meter.
*MX
*k[]
*C:
{4g
4cc
8dd
8cc
4cc
8dd
8cc
=1
2gg}
=2
{8gg
16gg
16ee
8dd
4ee
8dd
=3
8cc
8dd
2ee
=4
8gg
16ee
16dd
16cc
16ee
4.dd
=5
4cc
8cc
8a
2g}
{4g
4cc
4cc
8dd
8cc
2gg}
{8gg
16gg
16ee
8dd
4ee
8dd
=6
16ee
16gg
16cc
16dd
2ee
=7
8gg
16ee
16dd
16cc
16ee
[8dd
2dd]
=8
4cc
8cc
8a
2g}
{2a
2dd
=9
4cc
8cc
8a
2gg}
{8gg
16gg
16ee
4dd
2ee
=10
16cc
16dd
4.ee
16dd
16ee
8gg
8gg
4ee
8dd
=11
4cc
8cc
8a
2g}
==
!!!AGN: Shange, Tiange. Nongtian laodong chang
!!!ONB: ESAC (Essen Associative Code) Database: HUANG
!!!AMT: irregular
!!!AIN: vox
!!!EED: Helmut Schaffrath
!!!EEV: 1.0
*-
